Numix-Circle/48/applications/text-editor.svg

<svg width="48" xmlns="http://www.w3.org/2000/svg" viewBox="0 0 13.546667 13.546667" height="48" xmlns:xlink="http://www.w3.org/1999/xlink">
<defs>
<linearGradient id="linearGradient4460">
<stop offset="0" style="stop-color:#aaa"/>
<stop offset="1" style="stop-color:#c8c8c8"/>
</linearGradient>
<linearGradient gradientTransform="matrix(1.10528 0 0 1.10528 -134.28288 -295.77052)" xlink:href="#linearGradient4460" id="linearGradient3005" y1="279.096" y2="268.33" gradientUnits="userSpaceOnUse" x2="0"/>
</defs>
<g style="fill-rule:evenodd">
<rect width="12.982" x=".282" y=".282" rx="6.491" height="12.982" style="opacity:.5;fill:#fff"/>
<rect width="11.853" x=".847" y=".847" rx="5.926" height="11.853" style="fill:url(#linearGradient3005)"/>
</g>
<path style="fill:#f9f9f9;line-height:normal;color:#000" d="m 4.2333335,3.3868666 c 0,0 -0.2822221,2.36e-5 -0.2822221,0.2822139 l 0,6.2087059 c 0,0 -10e-8,0.2822136 0.2822221,0.2822136 l 5.0800003,0 c 0,0 0.2822219,2e-6 0.2822219,-0.2821893 l 0,-4.2328475 L 7.337778,3.3874443 C 6.2892792,3.3861444 4.8701712,3.3868666 4.2333335,3.3868666 z"/>
<g transform="translate(0 .56439)">
<path style="fill:#ff6f05" d="m 10.001049,8.4667169 c 0,0 0.15918,-0.091699 0.15895,-0.5644279 7e-6,-0.4553909 -0.1792446,-0.5644277 -0.1792446,-0.5644277 l -4.2519024,1.5e-6 -1.2132963,0.5644219 1.2132972,0.5644322 z"/>
<path style="fill:#ffc13e" d="M 20,26.15625 16,28 l 4,1.84375 0,-3.6875 z" transform="scale(.28222)"/>
<path style="fill:#2d2d2d" d="M 18,27.0625 16,28 l 2,0.9375 0,-1.875 z" transform="scale(.28222)"/>
<path style="fill:#ff2d5e" d="m 33,26 0,4 2.4375,0 c 0,0 0.563315,-0.324976 0.5625,-2 2.5e-5,-1.61359 -0.625,-2 -0.625,-2 L 33,26 z" transform="scale(.28222)"/>
</g>
<g style="fill:#aaa">
<path d="m 5.3622223,6.0677779 0,0.2822223 2.8222224,0 0,-0.2822223 z"/>
<path d="m 5.3622223,6.6322224 0,0.2822222 2.8222224,0 0,-0.2822222 z"/>
<path d="m 5.3622223,7.1966669 0,0.2822222 2.8222224,0 0,-0.2822222 z"/>
</g>
<path style="fill:#dedede;line-height:normal;color:#000" d="M 9.5955555,5.6444446 7.3377779,3.3866667 c -0.00123,1.1285384 1e-7,1.6933334 1e-7,1.9755557 0,0.2822222 0,0.2822222 0.2822222,0.2822222 0.2822222,0 1.1566756,0.00337 1.9755553,0 z"/>
</svg>

<svg width="48" xmlns="http://www.w3.org/2000/svg" viewBox="0 0 13.546667 13.546667" height="48" xmlns:xlink="http://www.w3.org/1999/xlink">
<defs>
<linearGradient id="linearGradient4460">
<stop offset="0" style="stop-color:#2d2d2d"/>
<stop offset="1" style="stop-color:#4b4b4b"/>
</linearGradient>
<linearGradient gradientTransform="matrix(1.10528 0 0 1.10528 -134.28288 -295.77052)" xlink:href="#linearGradient4460" id="linearGradient3005" y1="279.096" y2="268.33" gradientUnits="userSpaceOnUse" x2="0"/>
</defs>
<g style="fill-rule:evenodd">
<rect width="12.982" x=".282" y=".282" rx="6.491" height="12.982" style="opacity:.5;fill:#fff"/>
<rect width="11.853" x=".847" y=".847" rx="5.926" height="11.853" style="fill:url(#linearGradient3005)"/>
</g>
<g style="line-height:normal;color:#000">
<path style="fill:#f9f9f9" d="m 4.2333335,3.3868666 c 0,0 -0.2822221,2.36e-5 -0.2822221,0.2822139 l 0,6.2087059 c 0,0 -10e-8,0.2822136 0.2822221,0.2822136 l 5.0800003,0 c 0,0 0.2822219,2e-6 0.2822219,-0.2821893 l 0,-4.2328475 L 7.337778,3.3874443 C 6.2892792,3.3861444 4.8701712,3.3868666 4.2333335,3.3868666 z"/>
<path style="fill:#ccc" d="M 9.5955555,5.6444446 7.3377779,3.3866667 c -0.00123,1.1285384 1e-7,1.6933334 1e-7,1.9755557 0,0.2822222 0,0.2822222 0.2822222,0.2822222 0.2822222,0 1.1566756,0.00337 1.9755553,0 z"/>
</g>
<path style="fill:#ff6f05" d="m 10.001049,8.4667169 c 0,0 0.15918,-0.091699 0.15895,-0.5644279 7e-6,-0.4553909 -0.1792446,-0.5644277 -0.1792446,-0.5644277 l -4.2519024,1.5e-6 -1.2132963,0.5644219 1.2132972,0.5644322 z"/>
<path style="fill:#ffc13e" d="M 20 26.15625 L 16 28 L 20 29.84375 L 20 26.15625 z " transform="scale(.28222)"/>
<path style="fill:#2d2d2d" d="M 18 27.0625 L 16 28 L 18 28.9375 L 18 27.0625 z " transform="scale(.28222)"/>
<path style="fill:#ff2d5e" d="M 33 26 L 33 30 L 35.4375 30 C 35.4375 30 36.000815 29.675024 36 28 C 36.000025 26.38641 35.375 26 35.375 26 L 33 26 z " transform="scale(.28222)"/>
</svg>
